symbols/web/minimize/materialsymbolsrounded/minimize_wght200_20px.svg

<svg xmlns="http://www.w3.org/2000/svg" height="20" width="20"><path d="M5.854 17.083q-.166 0-.302-.135-.135-.136-.135-.323t.135-.323q.136-.135.323-.135h8.271q.166 0 .302.135.135.136.135.323t-.135.323q-.136.135-.323.135Z"/></svg>

<svg xmlns="http://www.w3.org/2000/svg" height="20" width="20"><path d="M5.854 17.083Q5.688 17.083 5.552 16.948Q5.417 16.812 5.417 16.625Q5.417 16.438 5.552 16.302Q5.688 16.167 5.875 16.167H14.146Q14.312 16.167 14.448 16.302Q14.583 16.438 14.583 16.625Q14.583 16.812 14.448 16.948Q14.312 17.083 14.125 17.083Z"/></svg>
